projects/plugins/jetpack/images/jetpack-woocommerce-logo.svg

<svg fill="none" height="33" viewBox="0 0 327 33" width="327" xmlns="http://www.w3.org/2000/svg"><path d="m16 32c8.8366 0 16-7.1634 16-16 0-8.83656-7.1634-16-16-16-8.83656 0-16 7.16344-16 16 0 8.8366 7.16344 16 16 16z" fill="#069e08"/><path d="m16.7939 13.313v15.5114l8-15.5114z" fill="#fff"/><path d="m15.1755 18.6565v-15.48096l-7.96945 15.48096z" fill="#fff"/><g fill="#000"><path d="m41.3158 26.9306c-.459-.7028-.8874-1.4056-1.3158-2.0778 2.2644-1.375 3.0294-2.475 3.0294-4.5528v-12.00833h-2.6622v-2.29167h5.661v13.6889c0 3.4833-1.0098 5.4389-4.7124 7.2417z"/><path d="m65.031 18.7418c0 1.1611.8262 1.2833 1.377 1.2833s1.3464-.1833 1.9584-.3667v2.1389c-.8568.275-1.7442.4889-2.9682.4889-1.4688 0-3.1824-.55-3.1824-3.1167v-6.2944h-1.5606v-2.1695h1.5606v-3.20829h2.8152v3.20829h3.5496v2.1695h-3.5496z"/><path d="m70.9062 27.9999v-17.325h2.6929v1.0389c1.071-.825 2.2644-1.3444 3.7332-1.3444 2.5398 0 4.5594 1.7722 4.5594 5.5917 0 3.7888-2.2032 6.2944-5.8446 6.2944-.8874 0-1.5912-.1222-2.3256-.275v5.9889h-2.8153zm5.6917-15.3083c-.8262 0-1.8666.3972-2.8458 1.2528v5.8972c.612.1222 1.2546.2139 2.1114.2139 1.989 0 3.1212-1.2528 3.1212-3.8806 0-2.4138-.8262-3.4833-2.3868-3.4833z"/><path d="m92.969 22.0111h-2.6316v-1.2528h-.0612c-.9181.7028-2.0503 1.4666-3.7333 1.4666-1.4688 0-3.06-1.0694-3.06-3.2388 0-2.9028 2.4786-3.4528 4.2228-3.6973l2.4787-.3361v-.3361c0-1.5278-.612-2.0167-2.0503-2.0167-.7038 0-2.3562.2139-3.7026.7639l-.2448-2.2611c1.224-.4278 2.907-.7333 4.3146-.7333 2.7541 0 4.5289 1.1 4.5289 4.3694v7.2723zm-2.8152-5.2862-2.3257.3667c-.7038.0917-1.4382.5195-1.4382 1.5583 0 .9167.5202 1.4362 1.2852 1.4362.8262 0 1.7137-.4889 2.4787-1.0389z"/><path d="m104.597 21.6444c-1.163.3972-2.203.6417-3.519.6417-4.2229 0-5.9059-2.4139-5.9059-5.9278 0-3.6972 2.3256-5.9889 6.0899-5.9889 1.407 0 2.264.2444 3.213.55v2.3833c-.827-.3055-2.02-.6416-3.183-.6416-1.7134 0-3.1823.9166-3.1823 3.5444 0 2.9028 1.4689 3.7889 3.3353 3.7889.888 0 1.867-.1833 3.183-.7028v2.3528z"/><path d="m109.922 15.5639c.244-.275.428-.55 3.978-4.8583h3.672l-4.59 5.3777 5.018 5.9584h-3.672l-4.376-5.3778v5.3778h-2.815v-16.0417h2.815v9.5639z"/><path d="m58.5437 21.6444c-1.4688.4583-2.7234.6417-4.1922.6417-3.6108 0-5.8447-1.8028-5.8447-6.0195 0-3.0861 1.8972-5.8972 5.5387-5.8972 3.6108 0 4.8654 2.5055 4.8654 4.8889 0 .7944-.0612 1.2222-.0918 1.6805h-7.2828c.0612 2.475 1.4688 3.0556 3.5802 3.0556 1.1628 0 2.2032-.275 3.3966-.7028v2.3528zm-2.5704-6.5695c0-1.375-.459-2.5666-1.9584-2.5666-1.4076 0-2.2644 1.0083-2.448 2.5666z"/></g><path d="m142 15h8" stroke="#1e1e1e" stroke-width="1.5"/><path d="m146 11v8" stroke="#1e1e1e" stroke-width="1.5"/><path clip-rule="evenodd" d="m240.984 8.79642c1.095-1.33227 2.612-2.00932 4.55-2.00932 2.064 0 3.644.67705 4.761 2.00932 1.095 1.35408 1.643 3.27608 1.643 5.76588s-.548 4.4336-1.622 5.8095c-1.075 1.376-2.612 2.0749-4.614 2.0749-2.064 0-3.644-.6989-4.718-2.0749-1.074-1.3759-1.622-3.3634-1.622-5.9624 0-2.4024.526-4.2807 1.622-5.61298zm-12.176 5.65688c0-2.2277.695-4.0623 2.107-5.50379 1.411-1.44147 3.181-2.16221 5.329-2.14037.822 0 1.601.08737 2.296.28393v3.53813c-.758-.2184-1.453-.3276-2.106-.3276-1.011 0-1.833.3931-2.507 1.2012-.653.7863-.99 1.8128-.99 3.0577 0 1.3323.337 2.3806 1.011 3.1669.674.7644 1.559 1.1575 2.675 1.1575.548 0 1.18-.1092 1.917-.3276v3.5381c-.8.2403-1.537.3495-2.19.3495-2.254 0-4.066-.7426-5.456-2.2059-1.391-1.4633-2.086-3.4071-2.086-5.7877zm18.39 3.6908c-.379.6115-.948.9173-1.664.9173-.674 0-1.18-.3058-1.538-.9173s-.527-1.8346-.527-3.691c0-2.8611.696-4.2807 2.107-4.2807 1.474 0 2.233 1.4414 2.233 4.3462-.021 1.7909-.232 3.014-.611 3.6255zm14.387-7.6004.759-3.34162h5.013l1.938 14.87332h-3.834l-1.032-10.2213-2.401 10.2213h-2.612l-2.507-10.2432-.99 10.2432h-3.666l1.833-14.87332h4.887c.695 3.21052 1.243 5.96242 1.643 8.27752l.422-2.3151c.168-.8954.358-1.7691.547-2.6208zm18.306-3.34162-.759 3.34162c-.189.8517-.379 1.7254-.547 2.6208l-.422 2.3151c-.4-2.3151-.948-5.067-1.643-8.27752h-4.887l-1.832 14.87332h3.665l.99-10.2432 2.507 10.2432h2.612l2.38-10.2213 1.032 10.2213h3.834l-1.938-14.87332zm15.356 8.99822h-3.434v2.7301h3.982v3.1668h-7.858v-14.8733h7.837v3.1669h-3.961v2.73h3.434zm11.459-2.3587c.4-.6771.611-1.376.611-2.0967 0-1.3978-.527-2.51166-1.58-3.31976-1.053-.80809-2.507-1.22306-4.318-1.22306h-4.508v14.87332h3.876v-6.7705h.063l3.139 6.7705h4.086l-3.096-6.705c.737-.3495 1.327-.8518 1.727-1.5288zm-5.94-3.7784v3.5381c1.706-.0218 2.57-.546 2.57-1.5725 0-.6989-.19-1.1794-.59-1.4851-.4-.3058-1.053-.4587-1.98-.4805zm8.826-1.11391c-1.411 1.44151-2.106 3.27601-2.106 5.50381 0 2.3806.695 4.3244 2.085 5.7877s3.202 2.2059 5.456 2.2059c.653 0 1.39-.1092 2.19-.3495v-3.5381c-.737.2184-1.369.3276-1.916.3276-1.117 0-2.002-.3932-2.676-1.1576-.674-.7862-1.011-1.8346-1.011-3.1668 0-1.2449.337-2.2714.99-3.0577.674-.8081 1.496-1.2012 2.507-1.2012.653 0 1.348.1092 2.106.3276v-3.53815c-.695-.19656-1.474-.28392-2.296-.28392-2.127-.02184-3.918.69889-5.329 2.14036zm12.576 7.22921v2.7082.0218h4.002v3.1669h-7.857v-14.87332h7.836v3.16682h-3.981v2.7301h3.433v3.0795z" fill="#000" fill-rule="evenodd"/><rect fill="#fff" height="23.9754" rx="5" width="49.2828" x="175.332" y="2.33203"/><path clip-rule="evenodd" d="m221.539 1h-42.674c-2.7 0-4.886 2.26374-4.865 5.01099v16.70331c0 2.7692 2.186 5.011 4.887 5.011h20.211l9.238 5.2747-2.101-5.2747h15.304c2.7 0 4.886-2.2418 4.886-5.011v-16.70331c0-2.76923-2.186-5.01099-4.886-5.01099zm-43.574 3.86813c-.6.04395-1.05.26373-1.35.68132-.3.3956-.407.90109-.343 1.47252 1.265 8.24173 2.443 13.80223 3.537 16.68133.428 1.0549.921 1.5604 1.5 1.5165.9-.066 1.972-1.3407 3.236-3.8242.665-1.4066 1.693-3.5165 3.087-6.3297 1.157 4.1539 2.743 7.2748 4.736 9.3627.558.5934 1.136.8571 1.693.8132.493-.044.879-.3077 1.136-.7913.215-.4175.3-.9011.258-1.4505-.129-2 .064-4.7912.6-8.3736.557-3.6923 1.243-6.35168 2.079-7.9341.171-.32967.236-.65934.214-1.05494-.043-.5055-.257-.92308-.664-1.25275-.408-.32967-.858-.48352-1.351-.43956-.621.04396-1.093.35165-1.414.96703-1.329 2.48352-2.272 6.50552-2.829 12.08792-.815-2.1099-1.501-4.5934-2.037-7.51649-.235-1.2967-.814-1.91209-1.757-1.84615-.643.04395-1.179.48351-1.607 1.31868l-4.694 9.16486c-.772-3.1868-1.501-7.0769-2.165-11.67036-.15-1.14285-.772-1.67033-1.865-1.58241zm31.293 4.13185c-.772-1.38461-1.929-2.21978-3.43-2.54945-.407-.08791-.793-.13187-1.157-.13187-2.058 0-3.73 1.09891-5.037 3.29671-1.114 1.86813-1.672 3.93403-1.672 6.19783 0 1.6923.343 3.1428 1.029 4.3516.772 1.3846 1.908 2.2198 3.429 2.5495.408.0879.793.1318 1.158.1318 2.079 0 3.751-1.0989 5.037-3.2967 1.114-1.8901 1.671-3.956 1.671-6.2197 0-1.7143-.343-3.1429-1.028-4.32972zm10.009-2.54945c1.521.32967 2.657 1.16484 3.429 2.54945.686 1.18682 1.029 2.61542 1.029 4.32972 0 2.2637-.557 4.3296-1.672 6.2197-1.286 2.1978-2.958 3.2967-5.037 3.2967-.364 0-.75-.0439-1.157-.1318-1.522-.3297-2.658-1.1649-3.429-2.5495-.686-1.2088-1.029-2.6593-1.029-4.3516 0-2.2638.557-4.3297 1.672-6.19783 1.307-2.1978 2.979-3.29671 5.036-3.29671.365 0 .751.04396 1.158.13187zm-12.71 8.63737c-.3 1.4506-.836 2.5275-1.629 3.2528-.622.5714-1.2.8132-1.736.7033-.514-.1099-.943-.5715-1.265-1.4286-.257-.6813-.385-1.3626-.385-2 0-.5495.042-1.0989.15-1.6044.192-.9011.557-1.7802 1.136-2.6154.707-1.0769 1.457-1.51647 2.229-1.3626.514.1099.943.5714 1.264 1.4285.257.6814.386 1.3627.386 2 0 .5715-.043 1.1209-.15 1.6264zm11.81 3.2528c.793-.7253 1.328-1.8022 1.628-3.2528.086-.5055.15-1.0549.15-1.6264 0-.6373-.128-1.3186-.385-2-.322-.8571-.75-1.3186-1.265-1.4285-.771-.15387-1.522.2857-2.229 1.3626-.579.8352-.943 1.7143-1.136 2.6154-.107.5055-.15 1.0549-.15 1.6044 0 .6374.129 1.3187.386 2 .321.8571.75 1.3187 1.264 1.4286.536.1099 1.115-.1319 1.737-.7033z" fill="#7f54b3" fill-rule="evenodd"/></svg>

<svg width="327" height="33" viewBox="0 0 327 33" fill="none" xmlns="http://www.w3.org/2000/svg">
<path d="M16 32C24.8366 32 32 24.8366 32 16C32 7.16344 24.8366 0 16 0C7.16344 0 0 7.16344 0 16C0 24.8366 7.16344 32 16 32Z" fill="#069E08"/>
<path d="M16.7939 13.313V28.8244L24.7939 13.313H16.7939Z" fill="white"/>
<path d="M15.1755 18.6565V3.17554L7.20605 18.6565H15.1755Z" fill="white"/>
<path d="M41.3158 26.9306C40.8568 26.2278 40.4284 25.525 40 24.8528C42.2644 23.4778 43.0294 22.3778 43.0294 20.3V8.29167H40.3672V6H46.0282V19.6889C46.0282 23.1722 45.0184 25.1278 41.3158 26.9306Z" fill="black"/>
<path d="M65.031 18.7418C65.031 19.9029 65.8572 20.0251 66.408 20.0251C66.9588 20.0251 67.7544 19.8418 68.3664 19.6584V21.7973C67.5096 22.0723 66.6222 22.2862 65.3982 22.2862C63.9294 22.2862 62.2158 21.7362 62.2158 19.1695V12.8751H60.6552V10.7056H62.2158V7.49731H65.031V10.7056H68.5806V12.8751H65.031V18.7418Z" fill="black"/>
<path d="M70.9062 27.9999V10.6749H73.5991V11.7138C74.6701 10.8888 75.8635 10.3694 77.3323 10.3694C79.8721 10.3694 81.8917 12.1416 81.8917 15.9611C81.8917 19.7499 79.6885 22.2555 76.0471 22.2555C75.1597 22.2555 74.4559 22.1333 73.7215 21.9805V27.9694H70.9062V27.9999ZM76.5979 12.6916C75.7717 12.6916 74.7313 13.0888 73.7521 13.9444V19.8416C74.3641 19.9638 75.0067 20.0555 75.8635 20.0555C77.8525 20.0555 78.9847 18.8027 78.9847 16.1749C78.9847 13.7611 78.1585 12.6916 76.5979 12.6916Z" fill="black"/>
<path d="M92.969 22.0111H90.3374V20.7583H90.2762C89.3581 21.4611 88.2259 22.2249 86.5429 22.2249C85.0741 22.2249 83.4829 21.1555 83.4829 18.9861C83.4829 16.0833 85.9615 15.5333 87.7057 15.2888L90.1844 14.9527V14.6166C90.1844 13.0888 89.5724 12.5999 88.1341 12.5999C87.4303 12.5999 85.7779 12.8138 84.4315 13.3638L84.1867 11.1027C85.4107 10.6749 87.0937 10.3694 88.5013 10.3694C91.2554 10.3694 93.0302 11.4694 93.0302 14.7388V22.0111H92.969ZM90.1538 16.7249L87.8281 17.0916C87.1243 17.1833 86.3899 17.6111 86.3899 18.6499C86.3899 19.5666 86.9101 20.0861 87.6751 20.0861C88.5013 20.0861 89.3888 19.5972 90.1538 19.0472V16.7249Z" fill="black"/>
<path d="M104.597 21.6444C103.434 22.0416 102.394 22.2861 101.078 22.2861C96.8551 22.2861 95.1721 19.8722 95.1721 16.3583C95.1721 12.6611 97.4977 10.3694 101.262 10.3694C102.669 10.3694 103.526 10.6138 104.475 10.9194V13.3027C103.648 12.9972 102.455 12.6611 101.292 12.6611C99.5786 12.6611 98.1097 13.5777 98.1097 16.2055C98.1097 19.1083 99.5786 19.9944 101.445 19.9944C102.333 19.9944 103.312 19.8111 104.628 19.2916V21.6444H104.597Z" fill="black"/>
<path d="M109.922 15.5639C110.166 15.2889 110.35 15.0139 113.9 10.7056H117.572L112.982 16.0833L118 22.0417H114.328L109.952 16.6639V22.0417H107.137V6H109.952V15.5639H109.922Z" fill="black"/>
<path d="M58.5437 21.6444C57.0749 22.1027 55.8203 22.2861 54.3515 22.2861C50.7407 22.2861 48.5068 20.4833 48.5068 16.2666C48.5068 13.1805 50.404 10.3694 54.0455 10.3694C57.6563 10.3694 58.9109 12.8749 58.9109 15.2583C58.9109 16.0527 58.8497 16.4805 58.8191 16.9388H51.5363C51.5975 19.4138 53.0051 19.9944 55.1165 19.9944C56.2793 19.9944 57.3197 19.7194 58.5131 19.2916V21.6444H58.5437ZM55.9733 15.0749C55.9733 13.6999 55.5143 12.5083 54.0149 12.5083C52.6073 12.5083 51.7505 13.5166 51.5669 15.0749H55.9733Z" fill="black"/>
<path d="M142 15H150" stroke="#1E1E1E" stroke-width="1.5"/>
<path d="M146 11L146 19" stroke="#1E1E1E" stroke-width="1.5"/>
<path fill-rule="evenodd" clip-rule="evenodd" d="M240.984 8.79642C242.079 7.46415 243.596 6.7871 245.534 6.7871C247.598 6.7871 249.178 7.46415 250.295 8.79642C251.39 10.1505 251.938 12.0725 251.938 14.5623C251.938 17.0521 251.39 18.9959 250.316 20.3718C249.241 21.7478 247.704 22.4467 245.702 22.4467C243.638 22.4467 242.058 21.7478 240.984 20.3718C239.91 18.9959 239.362 17.0084 239.362 14.4094C239.362 12.007 239.888 10.1287 240.984 8.79642ZM228.808 14.4533C228.808 12.2256 229.503 10.391 230.915 8.94951C232.326 7.50804 234.096 6.7873 236.244 6.80914C237.066 6.80914 237.845 6.89651 238.54 7.09307V10.6312C237.782 10.4128 237.087 10.3036 236.434 10.3036C235.423 10.3036 234.601 10.6967 233.927 11.5048C233.274 12.2911 232.937 13.3176 232.937 14.5625C232.937 15.8948 233.274 16.9431 233.948 17.7294C234.622 18.4938 235.507 18.8869 236.623 18.8869C237.171 18.8869 237.803 18.7777 238.54 18.5593V22.0974C237.74 22.3377 237.003 22.4469 236.35 22.4469C234.096 22.4469 232.284 21.7043 230.894 20.241C229.503 18.7777 228.808 16.8339 228.808 14.4533ZM247.198 18.1441C246.819 18.7556 246.25 19.0614 245.534 19.0614C244.86 19.0614 244.354 18.7556 243.996 18.1441C243.638 17.5326 243.469 16.3095 243.469 14.4531C243.469 11.592 244.165 10.1724 245.576 10.1724C247.05 10.1724 247.809 11.6138 247.809 14.5186C247.788 16.3095 247.577 17.5326 247.198 18.1441ZM261.585 10.5437L262.344 7.20208H267.357L269.295 22.0754H265.461L264.429 11.8541L262.028 22.0754H259.416L256.909 11.8322L255.919 22.0754H252.253L254.086 7.20208H258.973C259.668 10.4126 260.216 13.1645 260.616 15.4796L261.038 13.1645C261.206 12.2691 261.396 11.3954 261.585 10.5437ZM279.891 7.20208L279.132 10.5437C278.943 11.3954 278.753 12.2691 278.585 13.1645L278.163 15.4796C277.763 13.1645 277.215 10.4126 276.52 7.20208H271.633L269.801 22.0754H273.466L274.456 11.8322L276.963 22.0754H279.575L281.955 11.8541L282.987 22.0754H286.821L284.883 7.20208H279.891ZM295.247 16.2003H291.813V18.9304H295.795V22.0972H287.937V7.2239H295.774V10.3908H291.813V13.1208H295.247V16.2003ZM306.706 13.8416C307.106 13.1645 307.317 12.4656 307.317 11.7449C307.317 10.3471 306.79 9.23324 305.737 8.42514C304.684 7.61705 303.23 7.20208 301.419 7.20208H296.911V22.0754H300.787V15.3049H300.85L303.989 22.0754H308.075L304.979 15.3704C305.716 15.0209 306.306 14.5186 306.706 13.8416ZM300.766 10.0632V13.6013C302.472 13.5795 303.336 13.0553 303.336 12.0288C303.336 11.3299 303.146 10.8494 302.746 10.5437C302.346 10.2379 301.693 10.085 300.766 10.0632ZM309.592 8.94929C308.181 10.3908 307.486 12.2253 307.486 14.4531C307.486 16.8337 308.181 18.7775 309.571 20.2408C310.961 21.7041 312.773 22.4467 315.027 22.4467C315.68 22.4467 316.417 22.3375 317.217 22.0972V18.5591C316.48 18.7775 315.848 18.8867 315.301 18.8867C314.184 18.8867 313.299 18.4935 312.625 17.7291C311.951 16.9429 311.614 15.8945 311.614 14.5623C311.614 13.3174 311.951 12.2909 312.604 11.5046C313.278 10.6965 314.1 10.3034 315.111 10.3034C315.764 10.3034 316.459 10.4126 317.217 10.631V7.09285C316.522 6.89629 315.743 6.80893 314.921 6.80893C312.794 6.78709 311.003 7.50782 309.592 8.94929ZM322.168 16.1785V18.8867V18.9085H326.17V22.0754H318.313V7.20208H326.149V10.3689H322.168V13.099H325.601V16.1785H322.168Z" fill="black"/>
<rect x="175.332" y="2.33203" width="49.2828" height="23.9754" rx="5" fill="white"/>
<path fill-rule="evenodd" clip-rule="evenodd" d="M221.539 1H178.865C176.165 1 173.979 3.26374 174 6.01099V22.7143C174 25.4835 176.186 27.7253 178.887 27.7253H199.098L208.336 33L206.235 27.7253H221.539C224.239 27.7253 226.425 25.4835 226.425 22.7143V6.01099C226.425 3.24176 224.239 1 221.539 1ZM177.965 4.86813C177.365 4.91208 176.915 5.13186 176.615 5.54945C176.315 5.94505 176.208 6.45054 176.272 7.02197C177.537 15.2637 178.715 20.8242 179.809 23.7033C180.237 24.7582 180.73 25.2637 181.309 25.2198C182.209 25.1538 183.281 23.8791 184.545 21.3956C185.21 19.989 186.238 17.8791 187.632 15.0659C188.789 19.2198 190.375 22.3407 192.368 24.4286C192.926 25.022 193.504 25.2857 194.061 25.2418C194.554 25.1978 194.94 24.9341 195.197 24.4505C195.412 24.033 195.497 23.5494 195.455 23C195.326 21 195.519 18.2088 196.055 14.6264C196.612 10.9341 197.298 8.27472 198.134 6.6923C198.305 6.36263 198.37 6.03296 198.348 5.63736C198.305 5.13186 198.091 4.71428 197.684 4.38461C197.276 4.05494 196.826 3.90109 196.333 3.94505C195.712 3.98901 195.24 4.2967 194.919 4.91208C193.59 7.3956 192.647 11.4176 192.09 17C191.275 14.8901 190.589 12.4066 190.053 9.48351C189.818 8.18681 189.239 7.57142 188.296 7.63736C187.653 7.68131 187.117 8.12087 186.689 8.95604L181.995 18.1209C181.223 14.9341 180.494 11.044 179.83 6.45054C179.68 5.30769 179.058 4.78021 177.965 4.86813ZM209.258 8.99998C208.486 7.61537 207.329 6.7802 205.828 6.45053C205.421 6.36262 205.035 6.31866 204.671 6.31866C202.613 6.31866 200.941 7.41757 199.634 9.61537C198.52 11.4835 197.962 13.5494 197.962 15.8132C197.962 17.5055 198.305 18.956 198.991 20.1648C199.763 21.5494 200.899 22.3846 202.42 22.7143C202.828 22.8022 203.213 22.8461 203.578 22.8461C205.657 22.8461 207.329 21.7472 208.615 19.5494C209.729 17.6593 210.286 15.5934 210.286 13.3297C210.286 11.6154 209.943 10.1868 209.258 8.99998ZM219.267 6.45053C220.788 6.7802 221.924 7.61537 222.696 8.99998C223.382 10.1868 223.725 11.6154 223.725 13.3297C223.725 15.5934 223.168 17.6593 222.053 19.5494C220.767 21.7472 219.095 22.8461 217.016 22.8461C216.652 22.8461 216.266 22.8022 215.859 22.7143C214.337 22.3846 213.201 21.5494 212.43 20.1648C211.744 18.956 211.401 17.5055 211.401 15.8132C211.401 13.5494 211.958 11.4835 213.073 9.61537C214.38 7.41757 216.052 6.31866 218.109 6.31866C218.474 6.31866 218.86 6.36262 219.267 6.45053ZM206.557 15.0879C206.257 16.5385 205.721 17.6154 204.928 18.3407C204.306 18.9121 203.728 19.1539 203.192 19.044C202.678 18.9341 202.249 18.4725 201.927 17.6154C201.67 16.9341 201.542 16.2528 201.542 15.6154C201.542 15.0659 201.584 14.5165 201.692 14.011C201.884 13.1099 202.249 12.2308 202.828 11.3956C203.535 10.3187 204.285 9.87913 205.057 10.033C205.571 10.1429 206 10.6044 206.321 11.4615C206.578 12.1429 206.707 12.8242 206.707 13.4615C206.707 14.033 206.664 14.5824 206.557 15.0879ZM218.367 18.3407C219.16 17.6154 219.695 16.5385 219.995 15.0879C220.081 14.5824 220.145 14.033 220.145 13.4615C220.145 12.8242 220.017 12.1429 219.76 11.4615C219.438 10.6044 219.01 10.1429 218.495 10.033C217.724 9.87913 216.973 10.3187 216.266 11.3956C215.687 12.2308 215.323 13.1099 215.13 14.011C215.023 14.5165 214.98 15.0659 214.98 15.6154C214.98 16.2528 215.109 16.9341 215.366 17.6154C215.687 18.4725 216.116 18.9341 216.63 19.044C217.166 19.1539 217.745 18.9121 218.367 18.3407Z" fill="#7F54B3"/>
</svg>
